X: 1
T: Dentelles
T: Florence Glorion
O: "Activit\'es de broderies" (extrait 2)
Z: 2019 John Chambers <jc:trillian.mit.edu>
S: NEFFA 2019 French Jam handout p.17
M: 3/2
L: 1/8
K: Am
"^A"|:\
"Am"ABcd "C"c2"G"B2 "Am"A2A2 | "Am"ABcd "C"c2"G"d2 "Em"e2e2 :|\
[M: 4/4]\
"^B"|:\
"F"fe df "C"ed cB | "G"dc B2 "Am"AB cA |\
"F"fe df "C"ed cB | "G"dc B2 "A"A4 :|
